X: 133
T: Cantantibus organis – Andante
C: Franciszek Walczyński
%%abc-version 2.0
%%abcx-abcm2ps-target-version 5.9.1 (29 Sep 2008)
%%abc-creator hum2abc beta
%%abcx-conversion-date 2021/10/04 07:38:39
%%abc-edited-by Kamil Watkowski
%%abcx-initial-encoding-date 2021-08-09
%%humdrum-veritas 2979854347
%%humdrum-veritas-data 1209090618
%%linebreak <none>
%%barnumbers 0
L: 1/8
M: 3/4
N: Derived from pl-kozmzk--mzk-m-346--035_walczynski-franciszek--cantantibus-organis-andante.krn
%%staves {1 2}
V: 1 clef=treble
V: 2 clef=bass
K: Ab
[V:1] cAFGAc & z6 | 
[V:2] z6 & z6 | 
[V:1] F6 & CA,F,G,A,C | 
[V:2] z6 & z6 | 
[V:1] F2^F4 & E2=D2C2 | 
[V:2] z6 & z6 | 
[V:1] =dBG=ABd & B,2z2z2 | 
[V:2] z6 & z6 | 
[V:1] G6- & DB,G,=A,B,D | 
[V:2] z6 & z6 | 
[V:1] G2c2B2 & F2=E4 | 
[V:2] z6 & z6 | 
[V:1] A6 & F6- | 
[V:2] C6- & C,A,,F,,G,,A,,C, | 
[V:1] c2B2A2 & F2=E2F2- | 
[V:2] C6 & A,2G,2F,2 | 
[V:1] G6 & F2=E4 | 
[V:2] _D2C2B,2 & B,,2C,4 | 
[V:1] F6 & F6 | 
[V:2] A,6 & F,,6 | 
[V:1] cAFGAc & z6 | 
[V:2] z6 & z6 | 
[V:1] f6- & z6 | 
[V:2] CA,F,G,A,C & z6 | 
[V:1] f6- & z2[B2d2][G2B2] | 
[V:2] F6- & z6 | 
[V:1] !fermata!f6 & [A6c6] | 
[V:2] !fermata!F6 & !fermata!F,,6 | 
[V:1] z6 & ECA,B,CE | 
[V:2] z6 & z6 | 
[V:1] z6 & A2G2F2 | 
[V:2] z6 & z6 | 
[V:1] z6 & =E6- | 
[V:2] CG,=E,F,G,B, & z6 | 
[V:1] z6 & E6 | 
[V:2] D2C2B,2 & z6 | 
[V:1] cAFGAc & F6- | 
[V:2] C6- & A,6 | 
[V:1] f2_e2c2 & F6- | 
[V:2] C6 & =A,6 | 
[V:1] dBGABd & F6- | 
[V:2] B,6 & B,6 | 
[V:1] [A6c6] & F6- | 
[V:2] CA,F,G,A,C | 
[V:1] [A2=d2][A2c2][G2c2] & F2F2-F=E | 
[V:2] =B,2C2C,2 | 
[V:1] [A6c6] & F6 | 
[V:2] F,,6 | 
[V:1] z6 & z6 | 
[V:2] z6 & C,A,,F,,G,,A,,C, | 
[V:1] !fermata![C6F6] |]  
[V:2] A,6 & !fermata![F,,6C,6] |]  


